X:1
T:Magnificat VI toni
T:Magnificat VI toni
T:Georgius Victorinus
C:Georgius Victorinus
%%score [ 1 2 3 ] 4
L:1/8
Q:1/4=120
M:4/2
K:F
V:1 treble nm="Soprano 1" snm="S 1"
V:2 treble nm="Soprano 2" snm="S 2"
V:3 bass nm="Bass" snm="B"
V:4 bass nm="BC" snm="BC"
V:1
"^Source: Philomela Coelestis---München---N.Henricus---1624.\nEditor:André Vierendeels (21/02/76)\n""^MAGNIFICAT" F4 F2 F2 G4 A4"^super Dies est laetitiae" | %1
w: A- ni- ma me- a|
 B4 G4 F2 A3 A =B2 | c4 c4 d4 c4 | A8 z8 | F4 F2 F2 G4 A4 | B4 G4 F2 A3 A A2 | B4 c4 d4 B4 | %7
w: Do- * * * mi- num,|a- ni- ma me-|a,|a- ni- ma me- a|Do- * * * mi- num,|a- ni- ma me-|
 A2 c2 c2 c2 d4 e4 | f4 d4 c2 c2 c2 c2 | c4 d4 BABc d3 d | c16 || z8 z4 F4 | c4 c4 d4 c2 B2 | %13
w: a, a- ni- ma me- a|Do- mi- num, a- ni- ma|me- a Do- * * * * mi-|num.|Qui-|a re- spe- xit hu-|
 A4 =B4 c4 A4 | z4 A4 B4 F4 | z4 z G A2 B2 c6- | c2 BA =B4 c4 z2 c2 | d4 c4 A2 GF G4 | %18
w: mi- li- ta- tem,|re- spe- xit|hu- mi- li- ta-|* * * * tem an-|cil- lae su- * * *|
 FEFG AGAB c8 | z8 z4 G4 | A4 G4 E2 DC D4 | CDEF GABc d2 d4 c2 | _e4 d8 d4- | %23
w: ae _ _ _ _ _ _ _ _|an-|ci- lae su- * * *|ae _ _ _ _ _ _ _ _ ec- ce|e- nim ex|
 d4 c2 B2 c2 cc d2 D2 |[M:2/2] E8 |[M:3/2] z4 D4 C4 | D8 E4 | F8 A4 | G8 c4- | c12 ||[M:4/2] z16 | %31
w: _ hoc be- a- tam me di- *|cent,|o- mnes|ge- ne-|ra- ti-|o- nes.|_||
 z4 F8 F4 | B4 A4 c6 d2 | d4 f6 ed e4 | f4 e2 d2 c4 c4- | c2 A2 d3 c B3 A G4 | G6 A2 B4 d4 | %37
w: Et mi-|se- ri cor- di-|a e- * * *|ius _ _ , et|_ mi- se- ri- cor- di- a|e- * ius a|
 c8 d3 d B2 B2 | F4 F8 E4 | F4 d8 c4 | d4 B4 A4 A4- | A4 G4 A2 G2 F2 ED | E4 F6 F2 E4 | %43
w: pro- ge- ni- e, a|pro- ge- ni-|e, a pro|ge- ni- e, a|_ pro- ge- * * * *|* * ni- e|
 c4 A4 B4 G4 | A4 z2 c2 d3 c B2 A2 | G4 z2 A2 B3 A G2 F2 | E4 A4 BABc defe | d4 c4 B4 B4- | %48
w: in pro- ge- ni-|es ti- men- ti- bus e-|um, ti- men- ti- bus e-|um, ti- men- * * * * * * *|* ti- bus e-|
 B4 A2 G2 A8 || z16 | z4 C4 F6 F2 | F4 G4 A2 B2 c2 d2 | c4 F4 z4 A4 | F2 G2 A2 B2 A4 D4 | %54
w: * * * um.||De- po- su-|it po- ten- * * *|* tes de|se- * * * * de,|
 D6 E2 F4 D4 | E4 F6 ED E4 | F4 c4 A3 B c2 A2 | d4 c4 B4 AGAF | G4 F4 z4 f4 | e3 c d3 B c3 A B3 G | %60
w: de- * * *|* se- * * *|de, de- po- su- it po-|ten- tes de se- * * *|* de, de|se- * * * * * * *|
 A3 F G3 E F4 C4 | z4 G4 A6 B2 | c6 F2 z4 A4 | B4 c4 d4 e4 | f4 c4 F8 | z4 F4 G2 G2 A4 | %66
w: * * * * * de|et ex- al-|ta- vit, et|ex- al- ta- vit|hu- mi- les,|et ex- al- ta-|
 B4 ^c4 d2 d2 e4 | f4 c3 B A6 B2 | c16 | z16 | z8 z4 c4- | c2 B2 A4 G8 | F8 z8 | z8 z4 f4- | %74
w: vit, et ex- al- ta|vit hu- * * mi-|les.||Pu|_ e- rum su-|um,|pu-|
 f2 e2 d4 c8 | B4 d6 c2 B4 | A8 G8 | G4 A4 B3 A BA B/A/B/c/ | A8 z4 c4 | B2 G2 A2 GF G4 F4 | %80
w: * e- rum su-|um, pu- e- rum|su- um,|re- cor- da- * * * * * * *|tus mi-|se ri- cor- di- ae su- ae,|
 z4 f4 e2 c2 d2 cB | c4 B4 z4 d4 | c2 A2 B2 AG A4 G4 | z8 f8 | e4 c4 d4 c2 B2 | c8 =B8 | %86
w: mi- se- ri- cor- di- ae|su- ae, mi-|se- ri- cor- di- ae su- ae,|mi-|se- ri- cor- di- ae|su- ae,|
 z4 f4 e4 c4 | d3 c BABc dcde fedc | dcBA B3 c d4 d4 | c16 ||[M:3/2] F4 F4 F4 | G4 G4 A4 | B8 G4 | %93
w: mi- se- ri-|cor- * * * * * * * * * * * * *|* * * * * di- ae su-|ae.|Glo- ri- a|Pa- tri et|Fi- li|
 F8 z4 | G8 F4 | D6 D2 E4 | F8 F4 | z12 | c4 c4 c4 | d4 d4 c4 | A8 =B4 | c8 z4 | c8 c4 | d6 d2 c4 | %104
w: o|et Spi-|ri- tu- i|San- cto,||glo- ri- a|Pa- tri et|Fi- li-|o|et Spi-|ri- tu- i|
 A4 G2 F2 G4 | F8 z4 | D8 E4 | F6 F2 D4 | C4 c4 =B4 | c8 z4 | z12 | z12 | z12 | %113
w: San- * * *|cto,|et Spi-|ri- tu- i|San- * *|cto,||||
[M:4/2] z4 F4 G2 F2 G2 A2 | B8 c6 BA | G16 | A16 |] %117
w: et Spi- ri- tu- i|San- * * *||cto.|
V:2
 z16 | z8 z2 F2 F2 F2 | G4 A4 B4 G4 | F2 c2 c2 c2 B4 A4 | D4 D2 D2 E4 F4 | G2 F4 E2 F2 c2 c2 c2 | %6
w: |A- ni- ma|me- a Do- mi-|num, a- ni- ma me- a,|a- ni- ma me- a|Do- * mi- num, a- ni- ma|
 d4 e4 f4 d4 | c2 A2 A2 A2 B4 c4 | d2 c4 =B2 c2 G2 G2 G2 | A4 F8 B4- | B4 A2 G2 A8 || %11
w: me- a Do- mi-|num, a- ni- ma me- a|Do- * mi- num, a- ni- ma|me- a Do-|* mi- * num.|
 z2 G2 c2 c2 c6 B2 | A6 G2 ^F4 G4 | z8 z4 F4 | c4 c4 d4 c2 B2 | A4 E4 F2 G2 A2 G2 | F8 E4 A4 | %17
w: Qui- a re- spe- *|* * * xit,|qui-|a re- spe- xit hu-|mi- li- ta- * * *|* tem an-|
 F4 G4 z4 c4- | c2 d4 c2 A2 GF G4 | FEFG AGAB c8 | z4 z2 G2 G6 F2 | E4 C4 z4 F4 | %22
w: cil- lae, an-|* cil- lae su- * * *|ae _ _ _ _ _ _ _ _|an- cil- lae|u- ae es-|
 G2 c4 B4 B2 A2 G2 | ^F4 G6 A2"^-natural" F4 |[M:2/2] G8 |[M:3/2] D4 F4 F4 | F8 G4 | A8 F4 | %28
w: ce e- nim ex hoc be-|a- tam me di-|cent,|o- * mnes|ge- ne-|ra- ti-|
 E8 A4- | A12 ||[M:4/2] z4 F8 F4 | B4 A4 c6 c2 | d4 c4 A8 | z8 G6 G2 | A2 B2 c8 G4 | %35
w: o- nes.|_|Et mi-|se- ri cor- di-|a e- ius,|et mi-|se- ri- cor- di-|
 A3 G F3 E D4 d4 | _e2 dc B2 c2 d4 B4- | B4 A4 B3 B d4 | d4 c4 d4 B4 | A4 z4 F8- | F4 E4 F4 D4 | %41
w: a _ _ _ _ e-|ius _ _ _ _ _ a|_ pro- ge- ni- e,|a pro- ge- ni-|e, a-|_ pro- ge- ni-|
 C4 c8 =B4 | c4 A4 G4 G4- | G4 F4 G2 F4 E2 | F4 z2 A2 B3 A G2 F2 | E4 z2 c2 d3 c B2 A2 | %46
w: e in pro|ge- ni- es, in|_ pro- ge- ni- *|es ti- men- ti- bus e-|um ti- men- ti- bs e-|
 G4 c4 dcde fedc | B4 c4 d4 d4 | c16 || z4 C4 F6 F2 | F4 G4 A2 B2 c2 d2 | c4 C4 z4 A4 | %52
w: um, ti- men- * * * * * * *|* ti- bus e-|um.|De- po- su-|it po- ten- * * *|* tes de|
 F2 G2 A2 B2 A4 D4- | D2 E2 F6 G2 A4 | z4 d4 A6 B2 | c4 B2 A2 G8 | F8 z4 F4 | D3 E F2 C2 G4 F4 | %58
w: se- * * * * de|_ _ _ _ _|de se- *||de, de-|po- su- it po- ten- tes|
 z4 f4 e3 c d3 B | c3 A B3 G A3 F G3 E | F4 C4 z4 G4 | A4 B4 c4 G4 | z4 A4 B4 c4 | d4 e4 f4 c4 | %64
w: de se- * * *||* de et|ex- al- ta- vit,|et ex- al-|ta- vit hu- mi-|
 F8 z4 F4 | G2 G2 A4 B4 d4 | d2 d2 e4 f4 c3 B | A6 B2 c4 A3 B | c16 | z16 | z8 z4 A4- | %71
w: les, et|ex- al- ta- vit,- et|ex- al- ta- vit hu- *|* mi- les, hu- mi-|les.||Pu-|
 A2 G2 F8 E4 | F8 z8 | z8 z4 d4- | d2 c2 B8 A4 | B4 B6 A2 G4- | G4 ^F4 G8 | z16 | %78
w: * e- rum su-|um,|pu-|* e- rum su-|um, pu- * rum|_ su- um,||
 z4 c4 B2 G2 A2 GF | G4 F4 z8 | z8 z4 f4 | e2 c2 d2 cB c4 B4 | z4 d4 c2 A2 B2 AG | A4 G4 z8 | z16 | %85
w: mi- se- ri- cor- di- ae|su- ae,|mi-|se- ri- cor- di- ae su- ae,|mi- se- ri- cor- di- ae|su- ae,||
 z16 | d8 c4 A4 | BABc dcde f3 e dcBA | Bc d4 d2 B4 B4- | B4 A2 G2 A8 ||[M:3/2] z12 | c4 c4 c4 | %92
w: |mi- se- ri|cor- * * * * * * * * * * * * *|* * * di- ae su-|* * * ae.||Glo- ri- a|
 d4 d4 e4 | f8 d4 | c8 z4 | d8 c4 | A6 A2 =B4 | c8 c4 | z12 | G4 G4 G4 | A4 A4 G4 | E8 ^F4 | %102
w: Pa- tri et|Fi- li-|o|et Spi-|ri- tu- i|San- cto,||glo- ri- a|Pa- tri et|Fi- li-|
 G4 G4 A4 | B6 B2 G4 | F4 E2 D2 E4 | F8 z4 | F8 G4 | A6 A2 G4 | E4 D2 C2 D4 | E8 z4 | D8 C4 | %111
w: o et Spi-|ri- tu- i|San- * * *|cto,|et Spi-|ri- tu- i|San- * * *|cto,|et Spi-|
 D6 D2 E4 | F4 G8 |[M:4/2] F8 z4 z2 C2 | D2 E2 F2 G2 A6 GF | E2 C2 F6 ED E4 | F16 |] %117
w: ri- tu- i|San- *|cto, et|Spi- ri- tu- i San- * *||cto.|
V:3
 z8 C,4 C,2 C,2 | D,4 E,4 F,4 D,4 | C,8 z8 | F,,4 F,,2 F,,2 G,,4 A,,4 | B,,4 B,,2 A,,2 G,,4 F,,4 | %5
w: A ni- ma|me- a Do- mi-|num,|a- ni- ma me- a,|a- ni- ma me- a|
 B,,4 C,4 F,,8 | z16 | F,4 F,2 F,2 D,4 C,4 | F,,4 G,,4 C,4 C3 B, | A,G,F,E, D,C,B,,A,, B,,4 B,,4 | %10
w: Do- mi- num,||a- n- ma me- a|Do- mi- num, Do- *|* * * * * * * * * mi-|
 F,16 || C,8 F,4 F,4 | F,6 E,2 D,4 E,4 | F,4 E,2 D,2 C,4 F,4 | z4 F,4 B,,4 A,,2 G,,2 | %15
w: num.|Qui- a re-|spe- * * xit|hu- mi- li- ta- tem,-|hu- mi- * *|
 F,,4 C,4 F,6 E,2 | D,8 C,4 F,4 | D,4 E,4 F,2 E,D, C,4 | F,8 z4 C,4 | D,8 C,8 | %20
w: * li- ta- *|* tem an-|cil- lae su- * * *|ae, an-|cil- lae|
 A,,2 G,,F,, G,,4 C,4 =B,,4 | C,6 B,,A,, G,,4 B,,2 F,,2 | C,4 G,,4 G,4 F,2 E,2 | %23
w: su- * * * ae, ec-|ce e- * nim, ec- ce|e- nim ex hoc be-|
 D,4 E,6"^-natural" F,2 D,4 |[M:2/2] C,8 |[M:3/2] B,,8 A,,4 | B,,8 G,,4 | F,,8 F,,4 | C,8 F,,4- | %29
w: a- tam me di-|cent,|o- mnes|ge- ne-|ra- ti-|o- nes.|
 F,,12 ||[M:4/2] z16 | z16 | z4 F,8 F,4 | B,,4 F,,4 C,6 C,2 | F,4 C,8 C,4 | F,4 D,4 G,6 F,2 | %36
w: _|||Et mi-|se- ri- cor- di-|a, et mi-|se- r- cor- di-|
 _E,6 D,C, B,,8 | F,8 B,,8 | z16 | z4 B,,8 A,,4 | B,,4 G,,4 F,,4 F,4- | F,4 E,4 F,4 D,4 | %42
w: a _ _ _|e- ius||a pro-|ge- ni- e in-|* pro- ge- ni|
 C,8 z4 C,4- | C,4 D,4 B,,4 C,4 | F,,4 z2 F,2 B,,3 C, _E,2 F,2 | C,4 z2 F,,2 B,,3 F,, B,,2 F,2 | %46
w: es, in|_ pro- ge- ni-|es ti- men- ti bus e-|um, ti- men- ti- bus e-|
 C,4 F,,4 B,,8 | B,,4 A,,4 B,,8 | F,,16 || z16 | z16 | z16 | z16 | z16 | z16 | z16 | z16 | z16 | %58
w: um, ti- men-|ti- bus e-|um.||||||||||
 z16 | z16 | z16 | z16 | z16 | z16 | z16 | z16 | z16 | z16 | z16 | F,,8 G,,4 A,,4 | %70
w: |||||||||||Su- sce- pit|
 B,,4 G,,4 F,,8 | z16 | z4 B,,4 C,4 D,4 | _E,4 C,4 B,,8 | z16 | z4 B,,6 F,,2 G,,4 | D,8 G,,4 C,4- | %77
w: Is- ra- el,||su- sce- pit|Is- ra- el||pu- e- rum|su- um, re-|
 C,4 F,4 B,,8 | F,,8 z8 | z8 z4 F,4 | E,2 C,2 D,2 C,B,, C,4 B,,4 | z16 | z16 | z2 F,2 E,2 C,2 D,8 | %84
w: * cor- da-|tus|mi-|se- ri- cor- di- ae su- ae,|||mi- se- ri- cor-|
 C,4 A,,4 B,,4 A,,2 G,,2 | A,,8 G,,8 | z16 | B,,8 F,,8- | F,,16- | F,,16 ||[M:3/2] F,6 E,2 D,4 | %91
w: di- ae su- * *|* ae,||su- ae.|_||Glo- ri- a|
 C,6 B,,2 A,,4 | G,,8 C,4 | F,,8 z4 | C,8 F,4 | B,,6 B,,2 C,4 | F,6 E,2 D,4 | C,12 | z12 | z12 | %100
w: Pa- tri et|Fi- li-|o|et Spi-|ri- tu- i-|San- * *|cto,|||
 z12 | z12 | C,8 F,4 | B,,6 B,,2 C,4 | D,8 C,4 | F,8 z4 | B,,4 B,,4 G,,4 | %107
w: ||et Spi-|ri- tu- i|San- *|cto,|et Spi- ri-|
 F,,2 G,,2 A,,2 F,,2 G,,4 | C,8 G,,4 | C,8 z4 | z12 | z12 | z12 |[M:4/2] z4 F,4 C,2 D,2 E,2 F,2 | %114
w: tu- * * * *|i San-|cto,||||Et Spi- ri- tu- i|
 B,,6 A,,G,, F,,2 G,,2 A,,2 B,,2 | C,4 B,,4 C,8 | F,,16 |] %117
w: San- * * * * * *||cto.|
V:4
 z8 C,4 C,2 C,2 | D,4 E,4 F,4 D,4 | C,8 B,,4 C,4 | F,,8 G,,4 A,,4 | B,,6 A,,2 G,,4 F,,4 | %5
 B,,4 C,4 F,,8 | B,,4 A,,2 G,,2 F,,4 B,,4 | %7
 F,8"^ET EXULTAVIT SPIRITUS MEUS*IN DEO SALUTARI MEO" D,4 C,4 | F,,4 G,,4 C,8 | %9
 F,4 D,C,B,,A,, B,,8 | E,,16 || C,8 F,8 | F,8 D,4 E,4 | F,4 E,2 D,2 C,4 F,4 | F,8 B,,4 A,,2 G,,2 | %15
 F,,4 C,4 F,6 E,2 | D,8 C,4 F,4 | D,4 E,4 F,4 C,4 | F,12 C,4 | D,8 C,8 | %20
 A,,2 G,,F,, G,,4 C,4 =B,,4 | C,8 G,,4 B,,2 F,,2 | C,4 G,,4 G,4 F,2 E,2 | %23
"^QUIA FECIT MIHI MAGNA QUI POTENS EST*ET SANCTUM NOMEN EIUS" D,4 E,6 F,2 D,4 |[M:2/2] C,8 | %25
[M:3/2] B,,8 A,,4 | B,,8 G,,4 | F,,8 F,,4 | C,8 F,,4- | F,,12 ||[M:4/2] F,6 E,2 D,2 C,2 B,,2 A,,2 | %31
 G,,4 F,,8 F,4 | B,,4 F,8 F,4 | B,,4 F,,4 C,6 C,2 | F,4 C,8 C,4 | F,4 D,4 G,,8 | _E,6 D,C, B,,8 | %37
 F,,8 B,,8 | B,,4 A,,4 B,,4 G,,4 | F,,4 B,,8 A,,4 | B,,4 G,,4 F,,4 F,4- | F,4 E,4 F,4 D,4 | %42
 C,4 F,,4 C,8 | C,4 D,4 B,,4 C,4 | F,,4 F,4 B,,3 C, _E,2 F,2 | %45
"^FECIT POTENTIAM IN BRACHIO SUO*DISPERSIT SUPERBOS MENTE CORDIS SUI" C,4 F,,4 B,,3 F,, B,,2 F,2 | %46
 C,4 F,,4 B,,8 | B,,4 A,,4 B,,8 | F,,16 || F,,8 F,,4 B,,4 | D,4 C,4 F,,8- | F,,4 C,4 F,,8 | %52
 F,,6 G,,2 A,,2 B,,C, D,4- | D,4 D,4 D,8 | G,,8 F,,8 | C,16 | F,,8 F,,4 F,,4 | B,,4 F,,4 G,,4 D,4 | %58
 C,4 F,,4 C,4 B,,2 D,2 | C,4 B,,4 A,,4 G,,4 | F,,4 C,4 D,4 E,4 | ^F,4 G,4 F,4 D,4 | %62
 E,4 F,4 G,4 A,4 | G,4 E,4 D,4 A,,4 | D,4 F,8 F,,4 | %65
 C,4 F,,2"^ESURIENTES IMPLEVIT BONIS*ET DIVITES DIMISIT INANES" F,2 _E,4 C,4 | %66
 B,,4 A,,4 D,2 B,,2 C,4 | F,8 F,,8 | F,,16 | F,,8 G,,4 A,,4 | B,,4 A,,4 F,,8 | F,8 C,8 | %72
 F,,4 B,,4 C,4 D,4 | _E,4 C,4 B,,8 | B,,8 F,8 | B,,4 B,,6 F,,2 G,,4 | D,8 G,,4 C,4- | %77
 C,4 F,4 B,,8 | F,,8 G,,4 F,,4 | G,,2 C,2 F,4 E,4 F,4 | C,4 D,2 C,B,, C,4 B,,4 | %81
 C,2 A,,2 B,,4 F,,4 B,,4 | C,2 D,2 B,,C,D,E, F,4 G,4 | F,4 E,2 C,2 D,8 | C,4 A,,4 B,,4 A,,2 G,,2 | %85
 A,,8 G,,8 |"^SICUT LOCUTUS EST AD PATRES NOSTROS*ABRAHAM ET SEMINI EIUS IN SAECULA" B,,8 C,4 F,4 | %87
 B,,16- | B,,16 | F,,16 ||[M:3/2] F,6 E,2 D,4 | C,6 B,,2 A,,4 | G,,8 C,4 | F,,8 G,,4 | C,8 F,4 | %95
 B,,6 B,,2 C,4 | F,6 E,2 D,4 | C,12 | F,4 E,4 A,4 | G,8 E,4 | F,4 F,,4 G,,4 | A,,8 D,4 | C,8 F,4 | %103
 B,,6 B,,2 C,4 | D,8 C,4 | F,12 | B,,8 G,,4 | F,,2 G,,2 A,,2 F,,2 G,,4 | C,8 G,,4 | C,8 z4 | %110
 G,,4 G,,4 A,,4 | %111
"^SICUT ERAT IN PRINCIPIO, ET NUNC, ET SEMPER, ET IN SAECULA SAECULORUM.\n                                                             AMEN." B,,8 G,,4 | %112
"^Notes: Original keys:: Ut 1st, Ut 1st, FA 4rth, Fa 4rth\n            editorial accidentals above the staff\n            in original print: \"cantus-cantus vel tenor-tenor\"" F,,4 C,8 | %113
[M:4/2] F,,8 C,6 F,,2 | B,,8 F,,8 | C,4 B,,4 C,8 | F,,16 |] %117

